X:1
T:Coming Again
T:Coming Again
T:Alfred Elisha Helton
T:Stella May Thompson, 1919
T:Public Domain Courtesy of the Cyber Hymnal™
C:Alfred Elisha Helton
Z:Public Domain
Z:Courtesy of the Cyber Hymnal™
%%score 1 ( 2 3 )
L:1/8
Q:1/4=95
M:6/8
K:Bb
V:1 treble 
V:2 bass 
V:3 bass 
V:1
 [B,D] | [DF][DF][DF] [EG][DF][^C=E] | [DF]3 [DB]2 [DB] | [Fd][Fd][Fd] [FB][Fc][Fd] | %4
w: 1.~From|Heav’n to this re- gion of|sor- row, The|Sav- ior is com- ing a-|
w: 2.~Oh!|seek you to- day for sal-|va- tion, The|Sav- ior is com- ing a-|
w: 3.~Re-|joice, oh! ye ran- somed, with|sing- ing, The|Sav- ior is com- ing a-|
 [Fc]3- [Fc]2 [DF] | [DF][DF][DF] [EG][DF][^C=E] | [DF]3 [DB]2 [FB] | [Fd][Fd][Fd] [Fd][DB][Fc] | %8
w: gain; * Oh!|could you re- ceive Him to-|mor- row, With|spir- it made free from all|
w: gain; * You|may not re- ceive con- do-|na- tion, If|long- er in sin you re-|
w: gain; * Re-|lease to His chos- en ones|bring- ing— A|home in that peace- ful do-|
 [DB]3- [DB]2 ||"^Refrain" [DB] | [Fd][Fd][Fd] [Fd][Fc][FB] | [Gc][GB][EG] [DF]3 | %12
w: stain! *||||
w: main! *|Our|bless- èd Re- deem- er is|com- ing a- gain,|
w: main! *||||
 [CF][CF][EA] [EA]3 | [DF][DF][FB] [FB]2 [DB] | [Fd][Fd][Fd] [Fd][Fc][FB] | %15
w: |||
w: Com- ing a- gain,|com- ing a- gain; Be|rea- dy to meet and to|
w: |||
 [Gc][GB][EG] [DF]2 [FB] | [EA][EA][EA] [EA][DB][Ec] | [DB]3- [DB]2 |] %18
w: |||
w: wel- come Him then, He|sure- ly is com- ing a-|gain. *|
w: |||
V:2
 [B,,F,] | [B,,B,][B,,B,][B,,B,] [B,,B,][B,,B,][B,,B,] | [B,,B,]3 [B,,F,]2 [B,,F,] | %3
 [B,,B,][B,,B,][B,,B,] [D,B,][C,A,][B,,B,] | [F,A,]3- [F,A,]2 [B,,B,] | %5
 [B,,B,][B,,B,][B,,B,] [B,,B,][B,,B,][B,,B,] | [B,,B,]3 [B,,F,]2 [D,B,] | %7
 [F,B,][F,B,][F,B,] [F,B,]F,F, | [B,,F,]3- [B,,F,]2 || [B,,F,] | %10
 [B,,B,][B,,B,][B,,B,] [B,,B,][C,A,][D,B,] | [E,B,][E,B,][E,B,] [B,,B,]3 | %12
 [F,A,][F,A,][F,C] [F,C]3 | [B,,B,][B,,B,][B,,D] [B,,D]2 [B,,F,] | %14
 [B,,B,][B,,B,][B,,B,] [B,,B,][C,A,][D,B,] | [E,B,][E,B,][E,B,] [B,,B,]2 [D,B,] | %16
 [F,C][F,C][F,C] [F,C][F,B,][F,A,] | [B,,B,]3- [B,,B,]2 |] %18
V:3
 x | x6 | x6 | x6 | x6 | x6 | x6 | x4 F,F, | x5 || x | x6 | x6 | x6 | x6 | x6 | x6 | x6 | x5 |] %18

